!!!OTL: 303. Die Merseburger Bruecke.
!!!ARE: Europa, Mitteleuropa, Deutschland, Dresden; Leipzig
!!!SCT: K2303
!!!TXL: @@DE
!!!YEM: Copyright 1995, estate of Helmut Schaffrath.
**kern	**text
*clefG2	*
*M4/4	*
*met(c)	*
*k[f#]	*
*G:	*
{4d	Wir
=1	=1
4g	woll'n
4g	die
8g	Mer-
8g	-ſe-
8b/	-bur-
8b/	-ger
=2	=2
4g	Brü-
4g	-cke
4d}	bau'n,
{4d	Wer
=3	=3
4g	hat
4g	ſie
8g	denn
8g	.
8b/	ʒer-
8b/	.
=4	=4
4g	-bro-
4g	.
4d}	-chen?
{4d	Der
=5	=5
2g	Goldſchmied,
4d	.
4d	der
=6	=6
2g	Goldſchmied,
4d}	.
{4d	mit
=7	=7
4g	ſei-
4g	-ner
4g	jüng-
4b	-ſten
=8	=8
2g	Toch-
4d;}	-ter.
{4d	Wir
=9	=9
4g	woll'n
4g	ſie
4g	wie-
4b	-der
=10	=10
2g	bau-
4d}	-en.
{4d	Was
=11	=11
4g	gebt
4g	ihr
4g	uns
4b	ʒum
=12	=12
2g	Loh-
4d}	-ne?
{4r	.
=13	=13
4g	Ei-
4g	-ne
4b	gold'-
4b	-ne
=14	=14
2g	Kro-
4d;}	-ne.
{4d	Ʒieht
=15	=15
4g	al-
4g	-le
4d	durch,
4d	ʒieht
=16	=16
4g	al-
4g	-le
4d}	durch!
{4d	Den
=17	=17
4e	letʒ-
4e	-ten
4f#	woll'n
4f#	wir
=18	=18
2g	fang'n,
4r}	.
{4d	mit
=19	=19
4b	Spie-
4b	-ßen
4a	und
4a	mit
=20	=20
2g	Stang'n.
4r}	.
==	==
!!!AGN: Kinder - Lied, Reigen, Tanz - Spiel
!!!ONB: ESAC (Essen Associative Code) Database: KINDER
!!!AMT: simple quadruple
!!!AIN: vox
!!!EED: Helmut Schaffrath
!!!EEV: 1.0
!!Muendlich aus Dresden und Leipzig 1886.
!!!GTL: Zweites Buch. Kinderspiel: 2. Reigen und Tanzspiele. / H. Thorbilden, Durchkriegen und Ziehkampf.
!!@@COMMENT:"Text durch Herrn Dr. C. Kant 1885. Jn Dresden sang man: "Wir woll'n die Meissner Bruecke baun.""
!!@@END:
!!!URL-scan: https://archive.org/details/DeutschesKinderliedUndKinderspiel/page/526/mode/1up
!!!ENC: Anna Maria Matuszewska
!!!EEV: 2024/05/09
*-	*-
